!! Cantigas de Santa Maria, No. 36
!! Transcribed by Higinio Angle/s
!! From Higinio Angle/s, "La Mu/sica de las Cantigas de Santa Mari/a
!! del rey Alfonso el Sabio", Barcelona: Biblioteca Central, 1943
**kern	**text
*M4/4	*Galician
*k[]	*
4e	Muit'
=1	.
2g	a-
4g	-mar
(8a	de-
8g)	.
=2	.
(4f	-ve-
4e)	.
4d	-mos
4e	en
=3	.
4f	nos-
4e	-sas
4d	vo-
4e	-on-
=4	.
(4d	-ta
4e)	.
4c,	-des
4e	a
=5	.
2g	Se-
4g	-nnor
(8a	que
8g)	.
=6	.
(4f	coi-
4e)	.
tas	-tas
4e	nos
=7	.
(8f	toll'
8e)	.
4d	e
(8e	temp-
8d)	-pes-
=8	.
2d	-ta-
2d	-des.
=9	.
*M2/4	*
4r	.
4a	E
=10	.
*M4/4	.
4cc	d'es-
4b	-to
(8cc	mos-
8b)	.
4a	-trou
=11	.
4g	a
(8a	Vir-
8g)	.
4f	-gen
4e	ma-
=12	.
4d	-ra-
4f	-vi-
4e	-lla
4f	qua-
=13	.
2g	-ma-
2g,	-nna
=14	.
*M2/4	*
4r	.
4a	non
=15	.
4cc	po-
4b	-de
(8cc	mos-
8b)	.
4a	-trar
=16	.
4g	ou-
(8a	-tro
8g)	.
4f	san-
4e	-to,
=17	.
4d	no
4e	mar
(8f	de
8g)	.
4e	Bre-
=18	.
2d	-ta-
2d,	-nna,
=19	.
*M2/4	*
4r	.
4e	u
=20	.
*M4/4	*
4g	foi
4g	li-
4g	-vrar
(8a	hu~
8g)	.
=21	.
4f	-a
4e	na-
4d	-ve,
4e	u
=22	.
(8f	y-
8g)	.
4e	-a
4d	gran
4e	com-
=23	.
(4d	-pa
4e)	.
4c,	nna
4e	d'o-
=24	.
4g	-me-
4g	-es,
4g	por
(8a	sa
8g)	.
=25	.
4f	prol
4e	bus-
4d	-car,
4e	no
=26	.
4f	que
4d	to-
(8e	-dos
8d)	.
4c	pu-
=27	.
2d	-nna-
2d	-des.
==	==
*-	*-
